X: 15
T: Christmas Eve
C: Tommy Coen
Z: leprecawn
S: https://thesession.org/tunes/440#setting47668
R: reel
M: 4/4
L: 1/8
K: Gmaj
|:GE|D2DE G2GA|B2dB ABGB|ABGE DB,DE|G2BG ABGE|
DB,DE G2GA|B2dB ABGA|BA (3ABA GEBG|ABGE G2:|
|:BABd edeg|a2ge g2eg|a2ge gage|dedB A2GA|
BABd edeg|a2ge g2eg|a2 ged2 BG|ABGE G2:|
|:BG G2 DGBd|egg2 egdc|BG G2 B2 AG|EA A2 EA A2|
BG G2 DGBd|egg2 egga|bgaf gedB|ABGE G4:|

